public/logos/KL.svg

<?xml version="1.0" encoding="UTF-8"?>
<svg xmlns="http://www.w3.org/2000/svg" xmlns:xlink="http://www.w3.org/1999/xlink" width="176pt" height="39.27pt" viewBox="0 0 176 39.27" version="1.1">
<defs>
<clipPath id="clip1">
  <path d="M 91 31 L 97 31 L 97 39.269531 L 91 39.269531 Z M 91 31 "/>
</clipPath>
</defs>
<g id="surface1">
<path style=" stroke:none;fill-rule:evenodd;fill:rgb(27.212524%,61.207581%,86.123657%);fill-opacity:1;" d="M 42.925781 17.566406 L 42.925781 13.480469 L 19.523438 13.480469 L 19.523438 17.566406 L 42.925781 17.566406 "/>
<path style=" stroke:none;fill-rule:evenodd;fill:rgb(27.212524%,61.207581%,86.123657%);fill-opacity:1;" d="M 19.339844 5.914062 C 17.605469 5.914062 16.207031 7.316406 16.207031 9.050781 C 16.207031 10.777344 17.605469 12.179688 19.339844 12.179688 C 21.070312 12.179688 22.472656 10.777344 22.472656 9.050781 C 22.472656 7.316406 21.070312 5.914062 19.339844 5.914062 "/>
<path style=" stroke:none;fill-rule:evenodd;fill:rgb(27.212524%,61.207581%,86.123657%);fill-opacity:1;" d="M 27.128906 5.839844 C 25.398438 5.839844 23.996094 7.242188 23.996094 8.96875 C 23.996094 10.703125 25.398438 12.105469 27.128906 12.105469 C 28.855469 12.105469 30.261719 10.703125 30.261719 8.96875 C 30.261719 7.242188 28.855469 5.839844 27.128906 5.839844 "/>
<path style=" stroke:none;fill-rule:evenodd;fill:rgb(27.212524%,61.207581%,86.123657%);fill-opacity:1;" d="M 34.765625 5.839844 C 33.03125 5.839844 31.632812 7.242188 31.632812 8.96875 C 31.632812 10.703125 33.03125 12.105469 34.765625 12.105469 C 36.488281 12.105469 37.894531 10.703125 37.894531 8.96875 C 37.894531 7.242188 36.488281 5.839844 34.765625 5.839844 "/>
<path style=" stroke:none;fill-rule:evenodd;fill:rgb(27.212524%,61.207581%,86.123657%);fill-opacity:1;" d="M 42.707031 5.839844 C 40.976562 5.839844 39.574219 7.242188 39.574219 8.96875 C 39.574219 10.703125 40.976562 12.105469 42.707031 12.105469 C 44.433594 12.105469 45.835938 10.703125 45.835938 8.96875 C 45.835938 7.242188 44.433594 5.839844 42.707031 5.839844 "/>
<path style=" stroke:none;fill-rule:evenodd;fill:rgb(27.212524%,61.207581%,86.123657%);fill-opacity:1;" d="M 31.871094 5.980469 L 31.871094 0.00390625 L 30.136719 0.00390625 L 30.136719 5.980469 L 31.871094 5.980469 "/>
<path style=" stroke:none;fill-rule:evenodd;fill:rgb(27.212524%,61.207581%,86.123657%);fill-opacity:1;" d="M 5.8125 21.21875 L 0 21.21875 L 0 36.605469 L 5.8125 36.605469 L 5.8125 30.449219 L 11.851562 36.605469 L 18.929688 36.605469 L 10.890625 27.832031 L 17.472656 21.21875 L 11.390625 21.21875 L 5.8125 26.910156 L 5.8125 21.21875 "/>
<path style=" stroke:none;fill-rule:evenodd;fill:rgb(27.212524%,61.207581%,86.123657%);fill-opacity:1;" d="M 19.390625 21.21875 L 24.9375 21.21875 L 24.9375 32.761719 L 34.785156 32.761719 L 34.785156 36.605469 L 19.390625 36.605469 L 19.390625 21.21875 "/>
<path style=" stroke:none;fill-rule:evenodd;fill:rgb(27.212524%,61.207581%,86.123657%);fill-opacity:1;" d="M 49.484375 29.988281 L 52.40625 21.21875 L 61.796875 21.21875 L 61.796875 36.605469 L 56.257812 36.605469 L 56.257812 25.066406 L 52.253906 36.605469 L 46.5625 36.605469 L 42.710938 25.066406 L 42.710938 36.605469 L 37.015625 36.605469 L 37.015625 21.21875 L 46.5625 21.21875 L 49.484375 29.988281 "/>
<path style=" stroke:none;fill-rule:evenodd;fill:rgb(27.212524%,61.207581%,86.123657%);fill-opacity:1;" d="M 34.117188 3.886719 L 34.117188 2.148438 L 28.136719 2.148438 L 28.136719 3.886719 L 34.117188 3.886719 "/>
<path style=" stroke:none;fill-rule:evenodd;fill:rgb(27.212524%,61.207581%,86.123657%);fill-opacity:1;" d="M 79.085938 32.527344 L 81.566406 32.527344 C 82.351562 32.527344 83.175781 32.324219 83.175781 31.140625 C 83.175781 29.90625 82.285156 29.808594 81.753906 29.808594 L 79.085938 29.808594 Z M 79.085938 36.882812 L 78.011719 36.882812 L 78.011719 28.878906 L 81.679688 28.878906 C 82.980469 28.878906 84.28125 29.339844 84.28125 31.03125 C 84.28125 32.210938 83.683594 32.644531 83.175781 32.945312 C 83.632812 33.136719 84.085938 33.339844 84.125 34.453125 L 84.195312 35.902344 C 84.203125 36.347656 84.261719 36.515625 84.589844 36.703125 L 84.589844 36.882812 L 83.277344 36.882812 C 83.125 36.390625 83.09375 35.179688 83.09375 34.875 C 83.09375 34.21875 82.957031 33.449219 81.679688 33.449219 L 79.085938 33.449219 L 79.085938 36.882812 "/>
<path style=" stroke:none;fill-rule:evenodd;fill:rgb(27.212524%,61.207581%,86.123657%);fill-opacity:1;" d="M 88.082031 36.195312 C 89.46875 36.195312 89.757812 34.746094 89.757812 33.964844 C 89.757812 33.183594 89.46875 31.734375 88.082031 31.734375 C 86.6875 31.734375 86.402344 33.183594 86.402344 33.964844 C 86.402344 34.746094 86.6875 36.195312 88.082031 36.195312 Z M 88.082031 30.886719 C 89.921875 30.886719 90.761719 32.460938 90.761719 33.964844 C 90.761719 35.46875 89.921875 37.039062 88.082031 37.039062 C 86.238281 37.039062 85.398438 35.46875 85.398438 33.964844 C 85.398438 32.460938 86.238281 30.886719 88.082031 30.886719 "/>
<g clip-path="url(#clip1)" clip-rule="nonzero">
<path style=" stroke:none;fill-rule:evenodd;fill:rgb(27.212524%,61.207581%,86.123657%);fill-opacity:1;" d="M 95.476562 31.050781 L 96.542969 31.050781 C 95.871094 32.960938 95.207031 34.867188 94.46875 36.769531 C 93.554688 39.132812 93.453125 39.269531 92.207031 39.269531 C 92.0625 39.269531 91.953125 39.222656 91.796875 39.179688 L 91.796875 38.285156 C 91.917969 38.335938 92.117188 38.390625 92.386719 38.390625 C 92.890625 38.390625 92.949219 38.246094 93.410156 37.039062 L 91.269531 31.050781 L 92.371094 31.050781 L 93.90625 35.800781 L 93.929688 35.800781 L 95.476562 31.050781 "/>
</g>
<path style=" stroke:none;fill-rule:evenodd;fill:rgb(27.212524%,61.207581%,86.123657%);fill-opacity:1;" d="M 100.90625 33.90625 C 100.753906 34.03125 100.507812 34.121094 99.300781 34.277344 C 98.832031 34.34375 98.070312 34.484375 98.070312 35.222656 C 98.070312 35.859375 98.390625 36.234375 99.117188 36.234375 C 100.023438 36.234375 100.90625 35.644531 100.90625 34.867188 Z M 97.351562 32.828125 C 97.394531 31.433594 98.308594 30.886719 99.738281 30.886719 C 100.195312 30.886719 101.875 31.019531 101.875 32.515625 L 101.875 35.867188 C 101.875 36.113281 102 36.210938 102.195312 36.210938 C 102.285156 36.210938 102.40625 36.195312 102.519531 36.171875 L 102.519531 36.882812 C 102.347656 36.929688 102.210938 36.996094 101.984375 36.996094 C 101.128906 36.996094 100.992188 36.546875 100.964844 36.105469 C 100.585938 36.515625 100.003906 37.050781 98.871094 37.050781 C 97.816406 37.050781 97.066406 36.371094 97.066406 35.367188 C 97.066406 34.875 97.210938 33.742188 98.820312 33.539062 L 100.421875 33.339844 C 100.652344 33.320312 100.929688 33.226562 100.929688 32.644531 C 100.929688 32.035156 100.484375 31.703125 99.570312 31.703125 C 98.46875 31.703125 98.308594 32.378906 98.242188 32.828125 L 97.351562 32.828125 "/>
<path style=" stroke:none;fill-rule:evenodd;fill:rgb(27.212524%,61.207581%,86.123657%);fill-opacity:1;" d="M 103.546875 36.882812 L 103.546875 28.878906 L 104.519531 28.878906 L 104.519531 36.882812 L 103.546875 36.882812 "/>
<path style=" stroke:none;fill-rule:evenodd;fill:rgb(27.212524%,61.207581%,86.123657%);fill-opacity:1;" d="M 110.285156 35.957031 L 112.363281 35.957031 C 113.75 35.957031 114.652344 34.855469 114.652344 32.835938 C 114.652344 30.820312 113.742188 29.808594 112.285156 29.808594 L 110.285156 29.808594 Z M 109.21875 28.878906 L 112.425781 28.878906 C 114.488281 28.878906 115.761719 30.464844 115.761719 32.769531 C 115.761719 34.566406 114.984375 36.882812 112.382812 36.882812 L 109.21875 36.882812 L 109.21875 28.878906 "/>
<path style=" stroke:none;fill-rule:evenodd;fill:rgb(27.212524%,61.207581%,86.123657%);fill-opacity:1;" d="M 120.777344 36.882812 L 120.777344 36.035156 L 120.753906 36.015625 C 120.34375 36.695312 119.84375 37.050781 118.921875 37.050781 C 118.066406 37.050781 117.042969 36.636719 117.042969 35.242188 L 117.042969 31.050781 L 118.015625 31.050781 L 118.015625 34.921875 C 118.015625 35.878906 118.496094 36.203125 119.128906 36.203125 C 120.355469 36.203125 120.71875 35.109375 120.71875 34.261719 L 120.71875 31.050781 L 121.6875 31.050781 L 121.6875 36.882812 L 120.777344 36.882812 "/>
<path style=" stroke:none;fill-rule:evenodd;fill:rgb(27.212524%,61.207581%,86.123657%);fill-opacity:1;" d="M 124.339844 31.867188 L 124.339844 35.65625 C 124.339844 36.113281 124.726562 36.113281 124.925781 36.113281 L 125.265625 36.113281 L 125.265625 36.882812 C 124.914062 36.917969 124.636719 36.960938 124.539062 36.960938 C 123.578125 36.960938 123.367188 36.417969 123.367188 35.710938 L 123.367188 31.867188 L 122.585938 31.867188 L 122.585938 31.050781 L 123.367188 31.050781 L 123.367188 29.425781 L 124.339844 29.425781 L 124.339844 31.050781 L 125.265625 31.050781 L 125.265625 31.867188 L 124.339844 31.867188 "/>
<path style=" stroke:none;fill-rule:evenodd;fill:rgb(27.212524%,61.207581%,86.123657%);fill-opacity:1;" d="M 129.820312 33.015625 C 129.699219 32.234375 129.269531 31.769531 128.453125 31.769531 C 127.253906 31.769531 126.863281 32.925781 126.863281 33.964844 C 126.863281 34.964844 127.109375 36.203125 128.441406 36.203125 C 129.097656 36.203125 129.65625 35.710938 129.820312 34.820312 L 130.765625 34.820312 C 130.660156 35.742188 130.101562 37.050781 128.40625 37.050781 C 126.789062 37.050781 125.824219 35.816406 125.824219 34.128906 C 125.824219 32.324219 126.6875 30.886719 128.597656 30.886719 C 130.105469 30.886719 130.683594 32 130.765625 33.015625 L 129.820312 33.015625 "/>
<path style=" stroke:none;fill-rule:evenodd;fill:rgb(27.212524%,61.207581%,86.123657%);fill-opacity:1;" d="M 136.4375 36.882812 L 135.464844 36.882812 L 135.464844 33.070312 C 135.464844 32.277344 135.242188 31.769531 134.316406 31.769531 C 133.519531 31.769531 132.703125 32.234375 132.703125 33.703125 L 132.703125 36.882812 L 131.734375 36.882812 L 131.734375 28.878906 L 132.703125 28.878906 L 132.703125 31.832031 L 132.726562 31.832031 C 133.003906 31.464844 133.484375 30.886719 134.417969 30.886719 C 135.3125 30.886719 136.4375 31.25 136.4375 32.917969 L 136.4375 36.882812 "/>
<path style=" stroke:none;fill-rule:evenodd;fill:rgb(27.212524%,61.207581%,86.123657%);fill-opacity:1;" d="M 145.097656 33.59375 L 143.929688 30.074219 L 143.910156 30.074219 L 142.636719 33.59375 Z M 142.308594 34.554688 L 141.480469 36.882812 L 140.378906 36.882812 L 143.355469 28.878906 L 144.570312 28.878906 L 147.4375 36.882812 L 146.269531 36.882812 L 145.484375 34.554688 L 142.308594 34.554688 "/>
<path style=" stroke:none;fill-rule:evenodd;fill:rgb(27.212524%,61.207581%,86.123657%);fill-opacity:1;" d="M 148.324219 29.996094 L 148.324219 28.878906 L 149.292969 28.878906 L 149.292969 29.996094 Z M 148.324219 36.882812 L 148.324219 31.050781 L 149.292969 31.050781 L 149.292969 36.882812 L 148.324219 36.882812 "/>
<path style=" stroke:none;fill-rule:evenodd;fill:rgb(27.212524%,61.207581%,86.123657%);fill-opacity:1;" d="M 151.855469 36.882812 L 150.882812 36.882812 L 150.882812 31.050781 L 151.800781 31.050781 L 151.800781 32.023438 L 151.816406 32.023438 C 152.207031 31.339844 152.714844 30.886719 153.445312 30.886719 C 153.566406 30.886719 153.621094 30.898438 153.695312 30.917969 L 153.695312 31.933594 L 153.335938 31.933594 C 152.429688 31.933594 151.855469 32.644531 151.855469 33.496094 L 151.855469 36.882812 "/>
<path style=" stroke:none;fill-rule:evenodd;fill:rgb(27.212524%,61.207581%,86.123657%);fill-opacity:1;" d="M 154.445312 36.882812 L 154.445312 28.878906 L 155.421875 28.878906 L 155.421875 36.882812 L 154.445312 36.882812 "/>
<path style=" stroke:none;fill-rule:evenodd;fill:rgb(27.212524%,61.207581%,86.123657%);fill-opacity:1;" d="M 156.894531 29.996094 L 156.894531 28.878906 L 157.867188 28.878906 L 157.867188 29.996094 Z M 156.894531 36.882812 L 156.894531 31.050781 L 157.867188 31.050781 L 157.867188 36.882812 L 156.894531 36.882812 "/>
<path style=" stroke:none;fill-rule:evenodd;fill:rgb(27.212524%,61.207581%,86.123657%);fill-opacity:1;" d="M 164.027344 36.882812 L 163.054688 36.882812 L 163.054688 33.292969 C 163.054688 32.277344 162.769531 31.769531 161.820312 31.769531 C 161.269531 31.769531 160.292969 32.121094 160.292969 33.703125 L 160.292969 36.882812 L 159.324219 36.882812 L 159.324219 31.050781 L 160.238281 31.050781 L 160.238281 31.878906 L 160.261719 31.878906 C 160.476562 31.566406 161.011719 30.886719 162.007812 30.886719 C 162.898438 30.886719 164.027344 31.25 164.027344 32.917969 L 164.027344 36.882812 "/>
<path style=" stroke:none;fill-rule:evenodd;fill:rgb(27.212524%,61.207581%,86.123657%);fill-opacity:1;" d="M 169.4375 33.507812 C 169.378906 32.605469 169.003906 31.769531 167.824219 31.769531 C 166.933594 31.769531 166.226562 32.605469 166.226562 33.507812 Z M 170.363281 35.054688 C 170.328125 35.335938 170.066406 36.160156 169.335938 36.648438 C 169.070312 36.828125 168.695312 37.050781 167.769531 37.050781 C 166.144531 37.050781 165.1875 35.816406 165.1875 34.128906 C 165.1875 32.324219 166.050781 30.886719 167.953125 30.886719 C 169.621094 30.886719 170.441406 32.226562 170.441406 34.285156 L 166.226562 34.285156 C 166.226562 35.5 166.785156 36.203125 167.898438 36.203125 C 168.816406 36.203125 169.355469 35.488281 169.390625 35.054688 L 170.363281 35.054688 "/>
<path style=" stroke:none;fill-rule:evenodd;fill:rgb(27.212524%,61.207581%,86.123657%);fill-opacity:1;" d="M 174.878906 32.714844 C 174.867188 32.347656 174.734375 31.734375 173.507812 31.734375 C 173.214844 31.734375 172.359375 31.832031 172.359375 32.558594 C 172.359375 33.035156 172.660156 33.148438 173.410156 33.339844 L 174.382812 33.585938 C 175.585938 33.882812 176 34.332031 176 35.121094 C 176 36.328125 175.019531 37.050781 173.71875 37.050781 C 171.433594 37.050781 171.269531 35.710938 171.230469 35.011719 L 172.175781 35.011719 C 172.207031 35.46875 172.339844 36.203125 173.707031 36.203125 C 174.402344 36.203125 175.03125 35.925781 175.03125 35.277344 C 175.03125 34.808594 174.710938 34.65625 173.886719 34.441406 L 172.761719 34.164062 C 171.949219 33.964844 171.425781 33.550781 171.425781 32.746094 C 171.425781 31.464844 172.472656 30.886719 173.605469 30.886719 C 175.671875 30.886719 175.816406 32.425781 175.816406 32.714844 L 174.878906 32.714844 "/>
</g>
</svg>

<svg xmlns="http://www.w3.org/2000/svg" width="176pt" height="52.36" viewBox="0 0 176 39.27"><defs><clipPath id="a"><path d="M91 31h6v8.27h-6Zm0 0"/></clipPath></defs><path d="M42.926 17.566V13.48H19.523v4.086zM19.34 5.914a3.13 3.13 0 0 0-3.133 3.137 3.13 3.13 0 0 0 3.133 3.129 3.133 3.133 0 0 0 0-6.266M27.129 5.84a3.133 3.133 0 1 0 .001 6.265 3.133 3.133 0 0 0-.001-6.265M34.766 5.84a3.13 3.13 0 0 0-3.133 3.129 3.13 3.13 0 1 0 6.262 0 3.133 3.133 0 0 0-3.13-3.13M42.707 5.84a3.133 3.133 0 0 0 0 6.266 3.132 3.132 0 0 0 0-6.266M31.871 5.98V.004h-1.734V5.98zM5.813 21.219H0v15.386h5.813V30.45l6.039 6.156h7.078l-8.04-8.773 6.583-6.613H11.39L5.813 26.91zM19.39 21.219h5.547v11.543h9.848v3.843H19.391zM49.484 29.988l2.922-8.77h9.39v15.387h-5.538V25.066l-4.004 11.54h-5.691l-3.852-11.54v11.54h-5.695V21.218h9.547z" style="stroke:none;fill-rule:evenodd;fill:#459cdc;fill-opacity:1"/><path d="M34.117 3.887V2.148h-5.98v1.739zM79.086 32.527h2.48c.786 0 1.61-.203 1.61-1.386 0-1.235-.89-1.332-1.422-1.332h-2.668Zm0 4.356h-1.074v-8.004h3.668c1.3 0 2.601.46 2.601 2.152 0 1.18-.597 1.614-1.105 1.914.457.192.91.395.949 1.508l.07 1.45c.008.445.067.613.395.8v.18h-1.313c-.152-.492-.183-1.703-.183-2.008 0-.656-.137-1.426-1.414-1.426h-2.594zM88.082 36.195c1.387 0 1.676-1.449 1.676-2.23s-.29-2.23-1.676-2.23c-1.394 0-1.68 1.449-1.68 2.23s.285 2.23 1.68 2.23m0-5.308c1.84 0 2.68 1.574 2.68 3.078s-.84 3.074-2.68 3.074c-1.844 0-2.684-1.57-2.684-3.074s.84-3.078 2.684-3.078" style="stroke:none;fill-rule:evenodd;fill:#459cdc;fill-opacity:1"/><g clip-path="url(#a)"><path d="M95.477 31.05h1.066c-.672 1.91-1.336 3.817-2.074 5.72-.914 2.363-1.016 2.5-2.262 2.5-.144 0-.254-.047-.41-.09v-.895c.121.05.32.106.59.106.504 0 .562-.145 1.023-1.352l-2.14-5.988h1.101l1.535 4.75h.024z" style="stroke:none;fill-rule:evenodd;fill:#459cdc;fill-opacity:1"/></g><path d="M100.906 33.906c-.152.125-.398.215-1.605.371-.469.067-1.23.207-1.23.946 0 .636.32 1.011 1.046 1.011.906 0 1.79-.59 1.79-1.367Zm-3.554-1.078c.043-1.394.957-1.941 2.386-1.941.457 0 2.137.133 2.137 1.629v3.351c0 .246.125.344.32.344.09 0 .211-.016.325-.04v.712c-.172.047-.31.113-.536.113-.855 0-.992-.45-1.02-.89-.378.41-.96.945-2.093.945-1.055 0-1.805-.68-1.805-1.684 0-.492.145-1.625 1.754-1.828l1.602-.2c.23-.019.508-.112.508-.694 0-.61-.446-.942-1.36-.942-1.101 0-1.261.676-1.328 1.125zM103.547 36.883v-8.004h.973v8.004zM110.285 35.957h2.078c1.387 0 2.29-1.102 2.29-3.121 0-2.016-.91-3.027-2.368-3.027h-2Zm-1.066-7.078h3.207c2.062 0 3.336 1.586 3.336 3.89 0 1.797-.778 4.114-3.38 4.114h-3.163zM120.777 36.883v-.848l-.023-.02c-.41.68-.91 1.036-1.832 1.036-.856 0-1.879-.414-1.879-1.809v-4.191h.973v3.87c0 .958.48 1.282 1.113 1.282 1.226 0 1.59-1.094 1.59-1.941V31.05h.969v5.832zM124.34 31.867v3.79c0 .456.387.456.586.456h.34v.77c-.352.035-.63.078-.727.078-.96 0-1.172-.543-1.172-1.25v-3.844h-.781v-.816h.781v-1.625h.973v1.625h.926v.816zM129.82 33.016c-.12-.782-.55-1.246-1.367-1.246-1.2 0-1.59 1.156-1.59 2.195 0 1 .246 2.238 1.578 2.238.657 0 1.215-.492 1.38-1.383h.945c-.106.922-.664 2.23-2.36 2.23-1.617 0-2.582-1.234-2.582-2.921 0-1.805.864-3.242 2.774-3.242 1.507 0 2.086 1.113 2.168 2.129zM136.438 36.883h-.973V33.07c0-.793-.223-1.3-1.149-1.3-.796 0-1.613.464-1.613 1.933v3.18h-.969v-8.004h.97v2.953h.023c.277-.367.757-.945 1.691-.945.894 0 2.02.363 2.02 2.031zM145.098 33.594l-1.168-3.52h-.02l-1.273 3.52Zm-2.79.96-.828 2.329h-1.101l2.976-8.004h1.215l2.868 8.004h-1.168l-.786-2.328zM148.324 29.996V28.88h.969v1.117Zm0 6.887V31.05h.969v5.832zM151.855 36.883h-.972V31.05h.918v.972h.015c.391-.683.899-1.136 1.63-1.136a.8.8 0 0 1 .25.031v1.016h-.36c-.906 0-1.48.71-1.48 1.562zM154.445 36.883v-8.004h.977v8.004zM156.895 29.996V28.88h.972v1.117Zm0 6.887V31.05h.972v5.832zM164.027 36.883h-.972v-3.59c0-1.016-.285-1.523-1.235-1.523-.55 0-1.527.351-1.527 1.933v3.18h-.969V31.05h.914v.828h.024c.215-.313.75-.992 1.746-.992.89 0 2.02.363 2.02 2.031zM169.438 33.508c-.06-.903-.434-1.738-1.614-1.738-.89 0-1.597.835-1.597 1.738Zm.925 1.547c-.035.28-.297 1.105-1.027 1.593-.266.18-.64.403-1.566.403-1.625 0-2.583-1.235-2.583-2.922 0-1.805.864-3.242 2.766-3.242 1.668 0 2.488 1.34 2.488 3.398h-4.214c0 1.215.558 1.918 1.671 1.918.918 0 1.457-.715 1.493-1.148zM174.879 32.715c-.012-.367-.145-.98-1.371-.98-.293 0-1.149.097-1.149.824 0 .476.301.59 1.051.78l.973.247c1.203.297 1.617.746 1.617 1.535 0 1.207-.98 1.93-2.281 1.93-2.285 0-2.45-1.34-2.489-2.04h.946c.031.458.164 1.192 1.531 1.192.695 0 1.324-.277 1.324-.926 0-.468-.32-.62-1.144-.836l-1.125-.277c-.813-.2-1.336-.613-1.336-1.418 0-1.281 1.047-1.86 2.18-1.86 2.066 0 2.21 1.54 2.21 1.829z" style="stroke:none;fill-rule:evenodd;fill:#459cdc;fill-opacity:1"/></svg>
